blockly/static/turtle/elephant.svg

<?xml version="1.0" encoding="UTF-8" standalone="no"?>
<!-- Created with Inkscape (http://www.inkscape.org/) -->
<svg xmlns:dc="http://purl.org/dc/elements/1.1/" xmlns:cc="http://web.resource.org/cc/" xmlns:rdf="http://www.w3.org/1999/02/22-rdf-syntax-ns#" xmlns:svg="http://www.w3.org/2000/svg" xmlns="http://www.w3.org/2000/svg" xmlns:xlink="http://www.w3.org/1999/xlink" xmlns:sodipodi="http://sodipodi.sourceforge.net/DTD/sodipodi-0.dtd" xmlns:inkscape="http://www.inkscape.org/namespaces/inkscape" width="140" height="120" id="svg16544" sodipodi:version="0.32" inkscape:version="0.45.1" version="1.0" sodipodi:docbase="/home/eric/graphique/svg/publication" sodipodi:docname="linuxien_elephant.svg" inkscape:output_extension="org.inkscape.output.svg.inkscape">
  <defs id="defs16546">
    <linearGradient inkscape:collect="always" id="linearGradient5635">
      <stop style="stop-color:#000000;stop-opacity:1;" offset="0" id="stop5637"/>
      <stop style="stop-color:#000000;stop-opacity:0;" offset="1" id="stop5639"/>
    </linearGradient>
    <linearGradient inkscape:collect="always" xlink:href="#linearGradient5635" id="linearGradient6642" gradientUnits="userSpaceOnUse" x1="65.418419" y1="125" x2="65.387184" y2="50.539738"/>
    <linearGradient inkscape:collect="always" id="linearGradient9475">
      <stop style="stop-color:#917c6f;stop-opacity:1;" offset="0" id="stop9477"/>
      <stop style="stop-color:#917c6f;stop-opacity:0;" offset="1" id="stop9479"/>
    </linearGradient>
    <linearGradient inkscape:collect="always" xlink:href="#linearGradient9475" id="linearGradient6640" gradientUnits="userSpaceOnUse" gradientTransform="matrix(1.0003179,0,0,1.0008164,-1.6697392e-2,-6.2066865e-2)" x1="65.107513" y1="85.035378" x2="65.076279" y2="65"/>
  </defs>
  <sodipodi:namedview id="base" pagecolor="#ffffff" bordercolor="#666666" borderopacity="1.0" inkscape:pageopacity="0.0" inkscape:pageshadow="2" inkscape:zoom="2.8" inkscape:cx="79.104205" inkscape:cy="63.500386" inkscape:document-units="px" inkscape:current-layer="layer1" width="140px" height="120px" inkscape:window-width="1018" inkscape:window-height="684" inkscape:window-x="0" inkscape:window-y="30"/>
  <g inkscape:label="Calque 1" inkscape:groupmode="layer" id="layer1">
    <g id="g16586" inkscape:export-filename="/home/eric/graphique/svg/publication/linuxien_elephant.png" inkscape:export-xdpi="78.923073" inkscape:export-ydpi="78.923073">
      <path sodipodi:nodetypes="ccccsccc" id="path7760" d="M 25.953924,59.637024 C 13.559784,65.995964 13.384924,58.415919 8.9943242,54.24524 C 7.4352842,52.217767 4.2357342,48.003712 9.1234442,31.996917 C 9.3224642,26.468366 4.4396042,20.113369 7.5239742,14.275798 C 8.2010542,7.5497422 11.363994,3.2637272 22.547454,4.6151342 C 28.586244,5.3448612 32.487574,9.2793592 38.973614,8.0186142 C 43.041144,7.8853292 44.859454,8.5973512 49.214734,12.990947 C 41.115424,28.176357 34.053194,44.451616 25.953924,59.637024 z " style="fill:#9f8c81;fill-opacity:1;fill-rule:evenodd;stroke:#000000;stroke-width:2.28482127;stroke-linecap:butt;stroke-linejoin:miter;stroke-miterlimit:4;stroke-dasharray:none;stroke-opacity:1"/>
      <path sodipodi:nodetypes="ccccsccc" id="path6781" d="M 114.76036,59.637024 C 127.1545,65.995964 127.32936,58.415919 131.71996,54.24524 C 133.279,52.217767 136.47855,48.003712 131.59084,31.996917 C 131.39182,26.468366 136.27468,20.113369 133.19031,14.275798 C 132.51323,7.5497422 129.35029,3.2637272 118.16683,4.6151342 C 112.12804,5.3448612 108.22671,9.2793592 101.74067,8.0186142 C 97.673144,7.8853292 95.854834,8.5973512 91.499554,12.990947 C 99.598864,28.176357 106.66109,44.451616 114.76036,59.637024 z " style="fill:#9f8c81;fill-opacity:1;fill-rule:evenodd;stroke:#000000;stroke-width:2.28482127;stroke-linecap:butt;stroke-linejoin:miter;stroke-miterlimit:4;stroke-dasharray:none;stroke-opacity:1"/>
      <g style="fill:#c8beb7" transform="matrix(0.985805,0,0,0.9947926,6.4558542,-11.170646)" id="g6689">
        <g style="opacity:1;fill:#c8beb7;fill-opacity:1;fill-rule:nonzero;stroke:#000000;stroke-width:2.5;stroke-linecap:round;stroke-linejoin:miter;stroke-miterlimit:4;stroke-dasharray:none;stroke-dashoffset:0;stroke-opacity:1" id="g6691"/>
        <path id="path6678" d="M 114.28571,64.821426 C 114.28571,91.92857 92.125713,113.92857 64.821426,113.92857 C 37.51714,113.92857 15.35714,91.92857 15.35714,64.821426 C 15.35714,37.714283 37.51714,15.714283 64.821426,15.714283 C 92.125713,15.714283 114.28571,37.714283 114.28571,64.821426 z " style="fill-opacity:1;fill-rule:nonzero;stroke:#000000;stroke-width:2.52451658;stroke-linecap:round;stroke-linejoin:miter;stroke-miterlimit:4;stroke-dashoffset:0;stroke-opacity:1"/>
      </g>
      <path sodipodi:nodetypes="cccccccs" id="path6614" d="M 80.920214,79.967744 C 84.873274,85.121364 85.699494,91.449044 86.484954,95.365724 C 87.034534,98.529064 87.245634,102.21233 85.460434,106.80771 C 83.467724,111.2151 83.439884,115.24901 85.414134,116.25652 C 88.084834,116.55224 90.510104,112.76246 91.653474,109.81275 C 93.071714,106.99249 93.945624,103.08584 94.613424,98.222004 C 95.887834,89.926984 91.547514,74.483474 88.537394,73.739314 C 86.053484,74.874534 80.290844,79.147224 80.920214,79.967744 z " style="fill:#f4eed7;fill-rule:evenodd;stroke:#000000;stroke-width:1.03074312px;stroke-linecap:butt;stroke-linejoin:miter;stroke-opacity:1"/>
      <path inkscape:export-ydpi="18.898623" inkscape:export-filename="/home/eric/graphique/png/taureau.png" d="M 71.479114,82.101974 C 78.535384,81.861464 83.675714,78.388874 89.235164,74.345924" inkscape:export-xdpi="18.898623" sodipodi:nodetypes="cc" id="path6430" style="fill:none;fill-rule:evenodd;stroke:#000000;stroke-width:2.24394917;stroke-linecap:round;stroke-linejoin:miter;stroke-miterlimit:4;stroke-dasharray:none;stroke-opacity:1"/>
      <g transform="matrix(1,0,0,1.0489271,5.3571412,-14.471927)" id="g6628">
        <path style="fill:url(#linearGradient6640);fill-opacity:1;fill-rule:evenodd;stroke:url(#linearGradient6642);stroke-width:1.0257144;stroke-linecap:butt;stroke-linejoin:miter;stroke-miterlimit:4;stroke-dasharray:none;stroke-opacity:1" d="M 50.144145,65.70576 C 51.780251,78.190306 57.167551,92.10459 55.231091,104.94657 C 54.589416,110.13996 53.411858,113.36745 50.180074,113.9142 C 41.957669,113.93266 25.875622,109.03641 25.512856,110.57397 C 25.666507,112.56141 29.928606,113.20843 29.903627,115.5533 C 30.178486,117.63584 26.166268,116.23339 25.726616,118.67339 C 25.837849,120.35356 47.652412,125.87615 55.355345,124.16068 C 63.162437,122.82355 70.969527,111.92504 74.936112,102.81371 C 79.04323,94.490586 77.970132,77.946474 79.487144,65.512857" id="path8498" sodipodi:nodetypes="ccccccccc"/>
        <path style="fill:none;fill-opacity:1;fill-rule:nonzero;stroke:#9d958f;stroke-width:0.99257803;stroke-linecap:round;stroke-linejoin:miter;stroke-miterlimit:4;stroke-dasharray:none;stroke-dashoffset:0;stroke-opacity:1" d="M 50.035112,65.815823 C 49.821346,60.324364 56.239432,55.74973 64.364128,55.599811 C 64.369213,55.599719 64.374297,55.599627 64.379383,55.599536 C 72.510808,55.455071 79.283834,59.797032 79.498225,65.291584 C 79.498819,65.306799 79.499363,65.32185 79.499861,65.336762 C 79.506444,65.533982 79.504633,65.706431 79.494053,65.907577" id="path3636"/>
        <path style="fill:none;fill-opacity:1;fill-rule:nonzero;stroke:#908984;stroke-width:1.04310274;stroke-linecap:round;stroke-linejoin:miter;stroke-miterlimit:4;stroke-dasharray:none;stroke-dashoffset:0;stroke-opacity:1" d="M 50.98678,70.62874 C 50.784384,65.191978 56.861298,60.66292 64.554052,60.514584 C 64.558864,60.514492 64.563676,60.514402 64.56849,60.514313 C 72.26696,60.371383 78.679378,64.669603 78.88302,70.108945 C 78.883584,70.124021 78.884105,70.138941 78.884578,70.153723 C 78.890844,70.349286 78.889137,70.520189 78.879104,70.719577" id="path3638"/>
        <path style="fill:none;fill-opacity:1;fill-rule:nonzero;stroke:#88827d;stroke-width:1.03555441;stroke-linecap:round;stroke-linejoin:miter;stroke-miterlimit:4;stroke-dasharray:none;stroke-dashoffset:0;stroke-opacity:1" d="M 51.647122,73.57742 C 51.451667,68.245575 57.320211,63.803933 64.749098,63.658611 C 64.75374,63.658519 64.758387,63.658432 64.763029,63.658344 C 72.196363,63.518335 78.387977,67.732788 78.585696,73.066365 C 78.586248,73.081174 78.586753,73.095832 78.587214,73.11036 C 78.593317,73.302668 78.591686,73.470557 78.581974,73.666505" id="path3640"/>
        <path style="fill:none;fill-opacity:1;fill-rule:nonzero;stroke:#807975;stroke-width:1.03185678;stroke-linecap:round;stroke-linejoin:miter;stroke-miterlimit:4;stroke-dasharray:none;stroke-dashoffset:0;stroke-opacity:1" d="M 52.332927,76.675041 C 52.142344,71.506669 57.864819,67.201229 65.108669,67.060586 C 65.11319,67.0605 65.117712,67.060416 65.122234,67.06033 C 72.368792,66.924863 78.404889,71.008851 78.599295,76.177687 C 78.599837,76.192074 78.600337,76.206326 78.60079,76.22046 C 78.606824,76.407654 78.605256,76.570833 78.595755,76.761392" id="path3642"/>
        <path style="fill:none;fill-opacity:1;fill-rule:nonzero;stroke:#706b67;stroke-width:1.01488435;stroke-linecap:round;stroke-linejoin:miter;stroke-miterlimit:4;stroke-dasharray:none;stroke-dashoffset:0;stroke-opacity:1" d="M 53.464379,82.457374 C 53.284079,77.511917 58.698061,73.392207 65.551215,73.25796 C 65.555485,73.257877 65.559754,73.257793 65.564027,73.257712 C 72.417456,73.12845 78.126177,77.034489 78.312359,81.978631 C 78.312882,81.992449 78.313362,82.006149 78.313801,82.019742 C 78.319618,82.199997 78.318173,82.356763 78.309135,82.539997" id="path3644"/>
        <path style="fill:none;fill-opacity:1;fill-rule:nonzero;stroke:#4e4a47;stroke-width:1.02385783;stroke-linecap:round;stroke-linejoin:miter;stroke-miterlimit:4;stroke-dasharray:none;stroke-dashoffset:0;stroke-opacity:1" d="M 55.037052,91.815064 C 54.877168,87.138031 59.678421,83.843453 65.755723,84.458267 C 65.7595,84.458649 65.763278,84.459033 65.767054,84.459418 C 71.841659,85.078634 76.901746,89.371543 77.069763,94.045875 C 77.070236,94.059018 77.070674,94.072056 77.071072,94.085006 C 77.076379,94.256994 77.075141,94.40536 77.067062,94.578189" id="path3646"/>
        <path style="fill:none;fill-opacity:1;fill-rule:nonzero;stroke:#32302e;stroke-width:1;stroke-linecap:round;stroke-linejoin:miter;stroke-miterlimit:4;stroke-dasharray:none;stroke-dashoffset:0;stroke-opacity:1" d="M 55.50324,100.78378 C 55.369736,97.02594 59.379169,94.714223 64.453912,95.621966 C 64.457055,95.622529 64.460197,95.623092 64.463338,95.623658 C 69.532275,96.53409 73.754778,100.31495 73.898597,104.06896 C 73.899005,104.0796 73.899385,104.09018 73.89973,104.10071 C 73.904333,104.24078 73.903355,104.36061 73.896537,104.5" id="path3648"/>
        <path style="fill:none;fill-opacity:1;fill-rule:nonzero;stroke:#1d1d1d;stroke-width:1.01682484;stroke-linecap:round;stroke-linejoin:miter;stroke-miterlimit:4;stroke-dasharray:none;stroke-dashoffset:0;stroke-opacity:1" d="M 54.741595,107.71278 C 55.756328,105.85901 58.291798,105.59417 60.55262,106.84996 C 60.554746,106.85114 60.55684,106.85237 60.558951,106.85358 C 63.978239,108.80708 66.82669,112.39251 66.927295,114.8667 C 66.927586,114.87381 66.927855,114.88089 66.928099,114.88793 C 66.931383,114.98207 66.930776,115.06066 66.926097,115.15074" id="path3650" sodipodi:nodetypes="cssssc"/>
        <path style="fill:none;fill-opacity:1;fill-rule:nonzero;stroke:#000000;stroke-width:0.72215438;stroke-linecap:round;stroke-linejoin:miter;stroke-miterlimit:4;stroke-dasharray:none;stroke-dashoffset:0;stroke-opacity:1" d="M 44.893012,113.6848 C 45.53512,113.90645 45.821463,112.83392 46.399668,115.62824 C 46.400021,115.62994 46.400374,115.63164 46.400725,115.63335 C 46.976501,118.41885 47.239724,122.06724 46.990165,123.79404 C 46.989429,123.79911 46.988691,123.80418 46.98795,123.8092 C 46.977974,123.87696 46.968945,123.93137 46.957584,123.99219" id="path3652" sodipodi:nodetypes="cssssc"/>
      </g>
      <path sodipodi:nodetypes="cccccccs" id="path6626" d="M 59.794074,79.967744 C 55.841014,85.121364 55.014784,91.449044 54.229334,95.365724 C 53.679744,98.529064 53.468654,102.21233 55.253854,106.80771 C 57.246564,111.2151 57.274404,115.24901 55.300154,116.25652 C 52.629454,116.55224 50.204184,112.76246 49.060814,109.81275 C 47.642574,106.99249 46.768654,103.08584 46.100864,98.222004 C 44.826444,89.926984 49.166774,74.483474 52.176894,73.739314 C 54.660804,74.874534 60.423444,79.147224 59.794074,79.967744 z " style="fill:#f4eed7;fill-rule:evenodd;stroke:#000000;stroke-width:1.03074312px;stroke-linecap:butt;stroke-linejoin:miter;stroke-opacity:1"/>
      <path inkscape:export-ydpi="18.898623" inkscape:export-filename="/home/eric/graphique/png/taureau.png" d="M 58.902344,79.134034 L 52.028734,74.455844" inkscape:export-xdpi="18.898623" sodipodi:nodetypes="cc" id="path6654" style="fill:none;fill-rule:evenodd;stroke:#000000;stroke-width:2.24394917;stroke-linecap:round;stroke-linejoin:miter;stroke-miterlimit:4;stroke-dasharray:none;stroke-opacity:1"/>
      <g inkscape:export-ydpi="18.898623" inkscape:export-filename="/home/eric/graphique/png/taureau.png" inkscape:export-xdpi="18.898623" id="g15162" transform="translate(43.309414,3.2799422)">
        <path sodipodi:ry="6.976366" sodipodi:rx="7.0395007" inkscape:export-ydpi="18.9" inkscape:export-filename="/home/eric/graphique/png/cochon.png" transform="matrix(0.9943886,0,0,1.0033876,9.736073,-2.621574)" sodipodi:cx="35.008099" d="M 42.047599 35.002998 A 7.0395007 6.976366 0 1 1  27.968598,35.002998 A 7.0395007 6.976366 0 1 1  42.047599 35.002998 z" sodipodi:type="arc" sodipodi:cy="35.002998" inkscape:export-xdpi="18.9" id="path15164" style="fill:#ffffff;fill-opacity:1;fill-rule:nonzero;stroke:#000000;stroke-width:1.00112331;stroke-linecap:round;stroke-linejoin:miter;stroke-miterlimit:4;stroke-dasharray:none;stroke-dashoffset:0;stroke-opacity:1"/>
        <path sodipodi:ry="4.987628" sodipodi:rx="5.0191956" inkscape:export-ydpi="18.9" inkscape:export-filename="/home/eric/graphique/png/cochon.png" transform="matrix(0.9961755,0,0,1.0024806,9.673518,-2.684762)" sodipodi:cx="35.008099" d="M 40.027294 35.097698 A 5.0191956 4.987628 0 1 1  29.988903,35.097698 A 5.0191956 4.987628 0 1 1  40.027294 35.097698 z" sodipodi:type="arc" sodipodi:cy="35.097698" inkscape:export-xdpi="18.9" id="path15166" style="fill:#000000;fill-opacity:1;fill-rule:nonzero;stroke:none;stroke-width:2.5;stroke-linecap:butt;stroke-linejoin:miter;stroke-miterlimit:4;stroke-dasharray:none;stroke-dashoffset:0;stroke-opacity:1"/>
      </g>
      <g inkscape:export-ydpi="18.898623" inkscape:export-filename="/home/eric/graphique/png/taureau.png" inkscape:export-xdpi="18.898623" id="g6767" transform="translate(8.3094142,3.2239462)">
        <path sodipodi:ry="6.976366" sodipodi:rx="7.0395007" inkscape:export-ydpi="18.9" inkscape:export-filename="/home/eric/graphique/png/cochon.png" transform="matrix(0.9943886,0,0,1.0033876,9.736073,-2.621574)" sodipodi:cx="35.008099" d="M 42.047599 35.002998 A 7.0395007 6.976366 0 1 1  27.968598,35.002998 A 7.0395007 6.976366 0 1 1  42.047599 35.002998 z" sodipodi:type="arc" sodipodi:cy="35.002998" inkscape:export-xdpi="18.9" id="path6769" style="fill:#ffffff;fill-opacity:1;fill-rule:nonzero;stroke:#000000;stroke-width:1.00112331;stroke-linecap:round;stroke-linejoin:miter;stroke-miterlimit:4;stroke-dasharray:none;stroke-dashoffset:0;stroke-opacity:1"/>
        <path sodipodi:ry="4.987628" sodipodi:rx="5.0191956" inkscape:export-ydpi="18.9" inkscape:export-filename="/home/eric/graphique/png/cochon.png" transform="matrix(0.9961755,0,0,1.0024806,9.673518,-2.684762)" sodipodi:cx="35.008099" d="M 40.027294 35.097698 A 5.0191956 4.987628 0 1 1  29.988903,35.097698 A 5.0191956 4.987628 0 1 1  40.027294 35.097698 z" sodipodi:type="arc" sodipodi:cy="35.097698" inkscape:export-xdpi="18.9" id="path6771" style="fill:#000000;fill-opacity:1;fill-rule:nonzero;stroke:none;stroke-width:2.5;stroke-linecap:butt;stroke-linejoin:miter;stroke-miterlimit:4;stroke-dasharray:none;stroke-dashoffset:0;stroke-opacity:1"/>
      </g>
    </g>
  </g>
  <metadata>
    <rdf:RDF>
      <cc:Work>
        <dc:format>image/svg+xml</dc:format>
        <dc:type rdf:resource="http://purl.org/dc/dcmitype/StillImage"/>
        <cc:license rdf:resource="http://creativecommons.org/licenses/publicdomain/"/>
        <dc:publisher>
          <cc:Agent rdf:about="http://openclipart.org/">
            <dc:title>Open Clip Art Library</dc:title>
          </cc:Agent>
        </dc:publisher>
        <dc:title>Elephant</dc:title>
        <dc:date>2008-04-16T12:34:25</dc:date>
        <dc:description>The elephant of savanna</dc:description>
        <dc:source>http://openclipart.org/detail/16388/elephant-by-linuxien</dc:source>
        <dc:creator>
          <cc:Agent>
            <dc:title>Linuxien</dc:title>
          </cc:Agent>
        </dc:creator>
        <dc:subject>
          <rdf:Bag>
            <rdf:li>animal</rdf:li>
            <rdf:li>animal</rdf:li>
            <rdf:li>cartoon</rdf:li>
            <rdf:li>cartoon</rdf:li>
            <rdf:li>clip art</rdf:li>
            <rdf:li>clipart</rdf:li>
            <rdf:li>elephant</rdf:li>
            <rdf:li>elephant</rdf:li>
            <rdf:li>face</rdf:li>
            <rdf:li>face</rdf:li>
            <rdf:li>image</rdf:li>
            <rdf:li>media</rdf:li>
            <rdf:li>png</rdf:li>
            <rdf:li>public domain</rdf:li>
            <rdf:li>smiley</rdf:li>
            <rdf:li>smiley</rdf:li>
            <rdf:li>svg</rdf:li>
          </rdf:Bag>
        </dc:subject>
      </cc:Work>
      <cc:License rdf:about="http://creativecommons.org/licenses/publicdomain/">
        <cc:permits rdf:resource="http://creativecommons.org/ns#Reproduction"/>
        <cc:permits rdf:resource="http://creativecommons.org/ns#Distribution"/>
        <cc:permits rdf:resource="http://creativecommons.org/ns#DerivativeWorks"/>
      </cc:License>
    </rdf:RDF>
  </metadata>
</svg>

<svg xmlns="http://www.w3.org/2000/svg" xmlns:xlink="http://www.w3.org/1999/xlink" width="140" height="120" version="1"><defs><linearGradient id="a"><stop offset="0"/><stop offset="1" stop-opacity="0"/></linearGradient><linearGradient xlink:href="#a" id="d" gradientUnits="userSpaceOnUse" x1="65.418" y1="125" x2="65.387" y2="50.54"/><linearGradient id="b"><stop offset="0" stop-color="#917c6f"/><stop offset="1" stop-color="#917c6f" stop-opacity="0"/></linearGradient><linearGradient xlink:href="#b" id="c" gradientUnits="userSpaceOnUse" gradientTransform="matrix(1 0 0 1.001 -.017 -.062)" x1="65.108" y1="85.035" x2="65.076" y2="65"/></defs><g><path d="M25.954 59.637c-12.394 6.36-12.57-1.22-16.96-5.392-1.56-2.027-4.758-6.24.13-22.248.198-5.53-4.684-11.884-1.6-17.72.677-6.727 3.84-11.013 15.023-9.662 6.04.73 9.94 4.664 16.427 3.404 4.067-.135 5.885.577 10.24 4.97-8.1 15.186-15.16 31.462-23.26 46.647z" fill="#9f8c81" fill-rule="evenodd" stroke="#000" stroke-width="2.285"/><path d="M114.76 59.637c12.394 6.36 12.57-1.22 16.96-5.392 1.56-2.027 4.76-6.24-.13-22.248-.198-5.53 4.685-11.884 1.6-17.72-.677-6.727-3.84-11.013-15.023-9.662-6.04.73-9.94 4.664-16.426 3.404-4.067-.135-5.885.577-10.24 4.97 8.1 15.186 15.16 31.462 23.26 46.647z" fill="#9f8c81" fill-rule="evenodd" stroke="#000" stroke-width="2.285"/><g fill="#c8beb7" stroke="#000" stroke-linecap="round"><path d="M114.286 64.82c0 27.11-22.16 49.11-49.465 49.11-27.303 0-49.463-22-49.463-49.11 0-27.106 22.16-49.106 49.464-49.106 27.306 0 49.466 22 49.466 49.107z" stroke-width="2.525" transform="matrix(.986 0 0 .995 6.456 -11.171)"/></g><path d="M80.92 79.968c3.953 5.153 4.78 11.48 5.565 15.398.55 3.163.76 6.846-1.025 11.442-1.992 4.407-2.02 8.44-.046 9.45 2.67.294 5.096-3.496 6.24-6.445 1.418-2.82 2.292-6.727 2.96-11.59 1.274-8.296-3.066-23.74-6.077-24.484-2.484 1.135-8.246 5.407-7.617 6.228z" fill="#f4eed7" fill-rule="evenodd" stroke="#000" stroke-width="1.031"/><path d="M71.48 82.102c7.055-.24 12.196-3.713 17.755-7.756" stroke="#000" stroke-width="2.244" stroke-linecap="round" fill="none"/><g><path d="M50.144 65.706c1.636 12.484 7.024 26.4 5.087 39.24-.64 5.194-1.818 8.42-5.05 8.968-8.222.02-24.304-4.878-24.667-3.34.154 1.987 4.416 2.634 4.39 4.98.275 2.082-3.737.68-4.176 3.12.11 1.68 21.925 7.202 29.628 5.487 7.807-1.336 15.615-12.235 19.58-21.346 4.108-8.323 3.035-24.868 4.552-37.3" fill="url(#c)" fill-rule="evenodd" stroke="url(#d)" stroke-width="1.026" transform="matrix(1 0 0 1.049 5.357 -14.472)"/><path d="M50.035 65.816C49.82 60.324 56.24 55.75 64.365 55.6h.014c8.13-.145 14.904 4.197 15.118 9.692 0 .015 0 .03.002.045.006.197.005.37-.006.57" stroke="#9d958f" stroke-width=".993" stroke-linecap="round" fill="none" transform="matrix(1 0 0 1.049 5.357 -14.472)"/><path d="M50.987 70.63c-.203-5.438 5.874-9.967 13.567-10.115h.014c7.7-.144 14.11 4.155 14.315 9.594 0 .014 0 .03.002.044.006.195.004.366-.006.566" stroke="#908984" stroke-width="1.043" stroke-linecap="round" fill="none" transform="matrix(1 0 0 1.049 5.357 -14.472)"/><path d="M51.647 73.577c-.195-5.33 5.673-9.773 13.102-9.918l.013-.002c7.433-.14 13.625 4.075 13.823 9.408v.044c.007.193.006.36-.004.557" stroke="#88827d" stroke-width="1.036" stroke-linecap="round" fill="none" transform="matrix(1 0 0 1.049 5.357 -14.472)"/><path d="M52.333 76.675c-.19-5.168 5.532-9.474 12.776-9.614h.012c7.247-.135 13.283 3.95 13.477 9.118v.042c.007.188.005.35-.004.54" stroke="#807975" stroke-width="1.032" stroke-linecap="round" fill="none" transform="matrix(1 0 0 1.049 5.357 -14.472)"/><path d="M53.464 82.457c-.18-4.945 5.234-9.065 12.087-9.2h.014c6.853-.13 12.562 3.777 12.748 8.722 0 .012 0 .026.002.04.006.18.004.337-.005.52" stroke="#706b67" stroke-width="1.015" stroke-linecap="round" fill="none" transform="matrix(1 0 0 1.049 5.357 -14.472)"/><path d="M55.037 91.815c-.16-4.677 4.64-7.972 10.72-7.357h.01c6.075.62 11.135 4.914 11.303 9.588v.04c.006.17.005.32-.003.492" stroke="#4e4a47" stroke-width="1.024" stroke-linecap="round" fill="none" transform="matrix(1 0 0 1.049 5.357 -14.472)"/><path d="M55.503 100.784c-.133-3.758 3.876-6.07 8.95-5.162.004 0 .007 0 .01.002 5.07.91 9.292 4.69 9.436 8.445v.03c.004.14.003.26-.003.4" stroke="#32302e" stroke-linecap="round" fill="none" transform="matrix(1 0 0 1.049 5.357 -14.472)"/><path d="M54.742 107.713c1.014-1.854 3.55-2.12 5.81-.863.003 0 .005.002.007.004 3.418 1.953 6.267 5.54 6.367 8.013v.02c.004.095.004.174 0 .264" stroke="#1d1d1d" stroke-width="1.017" stroke-linecap="round" fill="none" transform="matrix(1 0 0 1.049 5.357 -14.472)"/><path d="M44.893 113.685c.642.22.928-.85 1.507 1.943v.005c.577 2.786.84 6.434.59 8.16 0 .006 0 .01-.002.016-.01.067-.02.12-.03.182" stroke="#000" stroke-width=".722" stroke-linecap="round" fill="none" transform="matrix(1 0 0 1.049 5.357 -14.472)"/></g><path d="M59.794 79.968c-3.953 5.153-4.78 11.48-5.565 15.398-.55 3.163-.76 6.846 1.024 11.442 1.993 4.407 2.02 8.44.046 9.45-2.67.294-5.096-3.496-6.24-6.445-1.417-2.82-2.29-6.727-2.96-11.59-1.274-8.296 3.067-23.74 6.077-24.484 2.484 1.135 8.246 5.407 7.617 6.228z" fill="#f4eed7" fill-rule="evenodd" stroke="#000" stroke-width="1.031"/><path d="M58.902 79.134l-6.873-4.678" stroke="#000" stroke-width="2.244" stroke-linecap="round" fill="none"/><g><path transform="matrix(.994 0 0 1.003 53.045 .658)" d="M42.048 35.003a7.04 6.976 0 1 1-14.08 0 7.04 6.976 0 1 1 14.08 0z" fill="#fff" stroke="#000" stroke-width="1.001" stroke-linecap="round"/><path transform="matrix(.996 0 0 1.002 52.983 .595)" d="M40.027 35.098a5.02 4.988 0 1 1-10.038 0 5.02 4.988 0 1 1 10.037 0z"/></g><g><path transform="matrix(.994 0 0 1.003 18.045 .602)" d="M42.048 35.003a7.04 6.976 0 1 1-14.08 0 7.04 6.976 0 1 1 14.08 0z" fill="#fff" stroke="#000" stroke-width="1.001" stroke-linecap="round"/><path transform="matrix(.996 0 0 1.002 17.983 .539)" d="M40.027 35.098a5.02 4.988 0 1 1-10.038 0 5.02 4.988 0 1 1 10.037 0z"/></g></g></svg>
